X:1
T:III Sibylla Delphica
T:III. Sibylla Delphica 
T:Transposé à la quarte
T:JS.Beauvais
T:JS.Beauvais
Z:JS.Beauvais
%%score [ 1 2 3 4 ]
L:1/8
M:2/1
K:C
V:1 treble nm="Soprano" snm="S."
V:2 treble-8 nm="Alto" snm="A."
V:3 treble-8 nm="Tenor" snm="T."
V:4 bass nm="Bass" snm="B."
V:1
 z16 | z16 | z16 | z4 A8 E4- | E4 G8 D2 E2 | F2 G2 A8 G4 | A8 D8- | D4 D4 D8 | z8 D8 | E8 E4 F4 | %10
w: |||Non tar-|* de ve- *|* * * ni-|et, ta-|* ci- ta|sed|men- te te-|
 E8 ^F4 F4 | G8 E8 | z4 F4 G6 G2 | F8 D8 | E4 E4 G8 | F4 E4 E8 | ^C8 E8 | ^F4 A4 A8 | B8 G8 | %19
w: nen- dum Hoc|o- pus,|hoc me- mo-|ri sem-|per, qui cor-|de re- po-|net, Hu-|ius per- ten-|dant cor|
 A8 A4 A4 | A8 A4 A4 | ^G8 A4 F4- | F4 F8 E2 D2 | E4 D4 D8- | D8 z4 B,4- | B,4 B,4 B,8- | %26
w: gau- di- a|ma- gna Pro-|phe- tae Ex-|* i- * *|* mi- a,|_ Qui|_ vir- gi-|
 B,4 ^C4 D4 D4 | E8 E4 G4 | G8 ^F4 G4 | E8 ^D8- | D8 z4 E4 | E4 G4 F4 F4 | E8 A,4 D4- | %33
w: * ne- a con-|cep- tus ab|al- vo Prod-|i- bit,|_ si-|ne con- tac- tu|ma- ris om-|
 D2 D2 D4 d8 | ^c8 z4 A4- | A4 A4 A4 G4 | F12 F4 | E16 | z4 F4 A8 | G8 z4 G4 | ^F8 G8- | G8 z8 | %42
w: * ni- a vin-|cit Hoc|_ na- tu- rae|o- pe-|ra,|at fe-|cit, at|fe- cit,|_|
 B8 c8- | c4 c4 B4 A4- | A4 ^G4 A8- | A4 A4 c8 | B4 _B4 A8 | ^F16 |] %48
w: qui cunc-|ta gu- ber- *|* * nat|, qui cunc-|ta gu- ber-|nat.|
V:2
 z16 | z16 | z16 | A8 c6 B2 | A4 E4 G2 A2 B2 c2 | d2 c2 c2 BA B4 B4 | A8 _B8- | B4 _B4 B8 | z8 A8 | %9
w: |||Non tar- *|* de ve- * * *|* * * * * * ni-|et, ta-|* ci- ta|sed|
 c8 B4 d4 | ^c8 d4 d4 | B8 c8 | c4 c6 c2 G4 | A2 B2 c6 BA B4 | A4 G4 d8 | d4 c4 B8 | e8 ^c8 | %17
w: men- te te-|nen- dum Hoc|o- pus,|hoc me- mo- ri|sem- * * * * *|per, qui cor-|de re- po-|net, Hu-|
 d4 e4 d8 | d8 e8 | f6 f2 f8 | e8 ^f4 f4 | e8 c8 | d8 c8- | c4 B4 B8- | B8 ^d8- | d8 ^d4 d4- | %26
w: ius per- ten-|dant cor|gau- di- a|ma- gna Pro-|phe- tae|Ex- i-|* mi- a,|_ Qui|_ vir- gi-|
 d4 e4 A4 A4 | c8 ^c4 d4 | e8 d4 d4 | c8 B8- | B8 z4 B4 | c4 c4 c4 d4 | ^c8 d4 B4- | B2 B2 A4 _B8 | %34
w: * ne- a con-|cep- tus ab|al- vo Prod-|i- bit,|_ si-|ne con- tac- tu|ma- ris om-|* ni- a vin-|
 A4 e8 e4 | f12 e2 d2 | c4 A4 d6 d2 | G4 c4 ^c8 | d8 z4 f4 | e8 d8 | d8 B8 | d4 G4 c8 | B4 e4 e8- | %43
w: cit Hoc na-|tu- * *|* rae o- pe-|ra, at fe-|cit at|fe- cit,|qui cunc-|ta gu- ber-|nat, qui cunc-|
 e8 g4 f4 | e8 e4 e4 | f4 f4 e4 e4- | e2 d2 d6 ^cB c4 | d16 |] %48
w: * ta gu-|ber- nat, qui|cunc- ta gu- ber-||nat.|
V:3
 D8 F8 | E8 G6 F2 | D2 E2 F2 D2 E4 E4 | ^F8 z8 | z16 | z16 | z4 F8 F4 | F16 | z8 ^F8 | G8 ^G4 A4 | %10
w: Non tar-|de ve- *|* * * * * ni-|et|||ta- ci-|ta|sed|men- te te-|
 A8 A4 A4 | d8 G4 G4 | A6 A2 G4 c4- | c4 A4 z4 G4 | c8 B4 _B4 | A8 ^G8 | z4 A4 A4 A4 | A8 ^F8 | %18
w: nen- dum Hoc|o- pus, hoc|me- mo- ri sem-|* per qui|cor- de re-|po- net,|Hu- ius per-|ten- dant|
 z4 G8 c4- | c2 c2 c4 c8 | ^c4 c4 d6 =c2 | B8 A8 | _B8 G8- | G4 G4 G8- | G8 ^F8- | F8 ^F4 F4- | %26
w: cor gau-|* di- a ma-|gna Pro- phe- *|* tae|Ex- i-|* mi- a,|_ Qui|_ vir- gi-|
 F4 A4 ^F4 F4 | G8 A4 B4 | c8 A4 B4 | A8 ^F8- | F8 z4 G4 | G4 G4 A4 D4 | A8 ^F4 G4- | %33
w: * ne- a con-|cep- tu ab|al- vo Prod-|i- bit,|_ si-|ne con- tac- tu|ma- ris om-|
 G2 G2 ^F4 G8 | E8 ^c8 | d4 c8 c4 | A2 B2 c8 B4 | c4 G4 A8 | F8 c8- | c8 B8 | A8 z4 G4- | %41
w: * ni- a vin-|cit Hoc|na- tu- rae|o- * * pe-|ra, at fe-|cit, at|_ fe-|cit, qui|
 G4 E8 A4- | A4 ^G4 A8 | G4 G4 d8 | B8 ^c8 | d8 G8 | G8 E8 | A16 |] %48
w: _ cunc- ta|_ gu- ber-|nat, at fe-|cit, qui|cunc- ta|gu- ber-|nat.|
V:4
 z4 D,8 A,,4- | A,,4 C,8 G,,2 A,,2 | B,,2 C,2 D,8 ^C,4 | D,8 z8 | z16 | z16 | z8 _B,,8- | %7
w: Non tar-|* de ve- *|* * * ni-|et|||ta-|
 B,,4 _B,,4 B,,8 | z8 D,8 | C,8 E,4 D,4 | A,,8 D,4 D,4 | G,,8 C,4 C,4 | F,6 F,2 E,8 | F,8 G,8 | %14
w: * ci- ta|sed|men- te te-|nen- dum Hoc|0- pus, hoc|me- mo- ri|sem- per|
 z4 C,4 G,,8 | D,4 A,,4 E,8 | A,,8 z4 A,,4 | D,4 ^C,4 D,8 | G,,8 C,8 | F,6 F,2 F,8 | A,8 D,4 D,4 | %21
w: qui cor-|de re- po-|net, Hu-|ius per- ten-|dant cor|gau- di- a|ma- gna Pro-|
 E,8 F,8 | _B,,8 C,8- | C,4 G,,4 G,,8- | G,,8 B,,8- | B,,8 B,,4 B,,4- | B,,4 A,,4 D,4 D,4 | %27
w: phe- tae|Ex- i-|* mi- a,|_ Qui|_ vir- gi-|* ne- a con-|
 C,8 A,,4 G,,4 | C,8 D,4 G,,4 | A,,8 B,,8- | B,,8 z4 E,4 | C,4 E,4 F,4 A,4 | A,,8 D,4 G,,4- | %33
w: cep- tus ab|al- vo Prod-|i- bit,|_ si-|ne con- tac- tu|ma- ris om-|
 G,,2 G,,2 D,4 G,,8 | A,,8 A,8 | F,4 F,8 C,4 | F,6 E,2 D,4 D,4 | C,8 z4 A,,4 | _B,,8 F,,8 | %39
w: * ni- a vin-|cit Hoc|na- tu- rae|o- * * pe-|ra, at|fe- cit|
 z4 C,4 G,8 | D,4 D,4 E,8 | B,,4 C,4 A,,8 | E,,8 z4 A,,4 | C,8 G,,4 D,4 | E,8 A,,4 A,,4 | D,8 C,8 | %46
w: at fe-|cit, qui cunc-|ta gu- ber-|nat, qui|cunc- ta gu-|ber- nat, qui|cunc- ta|
 G,,8 A,,8 | D,,16 |] %48
w: gu- ber-|nat.|

